assets/sonr-icons/plus.svg

<svg xmlns="http://www.w3.org/2000/svg" width="24" height="24" fill="none" viewBox="0 0 24 24"><path fill="#000" d="M12 4C11.448 4 11 4.448 11 5V11H5C4.448 11 4 11.448 4 12C4 12.552 4.448 13 5 13H11V19C11 19.552 11.448 20 12 20C12.552 20 13 19.552 13 19V13H19C19.552 13 20 12.552 20 12C20 11.448 19.552 11 19 11H13V5C13 4.448 12.552 4 12 4Z"/></svg>

<svg xmlns="http://www.w3.org/2000/svg" width="24" height="24" fill="none"><path fill="currentColor" d="M12 4a1 1 0 0 0-1 1v6H5a1 1 0 0 0 0 2h6v6a1 1 0 0 0 2 0v-6h6a1 1 0 0 0 0-2h-6V5a1 1 0 0 0-1-1"/></svg>
